src/icons/svg/user.svg

<?xml version="1.0" encoding="UTF-8"?>
<svg width="42px" height="42px" viewBox="0 0 42 42" version="1.1" xmlns="http://www.w3.org/2000/svg"
>
    <path d="M19.5124244,20.0247548 C25.9778147,20.0247548 31.218939,15.5413155 31.218939,10.0122207 C31.218939,4.48187259 25.9778147,0 19.5124244,0 C13.0476608,0 7.80559647,4.48187259 7.80622317,10.0122207 C7.80622317,15.5413155 13.0476608,20.0247548 19.5127378,20.0247548 L19.5124244,20.0247548 Z M24.8788895,23.3632062 L15.1223639,23.3632062 C6.77090841,23.3632062 0,29.1530097 0,36.2952402 L0,37.1300097 C0,40.0491963 6.77090841,40.0520164 15.1223639,40.0520164 L24.8788895,40.0520164 C33.2294049,40.0520164 40,39.9442234 40,37.1300097 L40,36.2955535 C40,29.1530097 33.2300316,23.3632062 24.8788895,23.3632062 L24.8788895,23.3632062 Z"
          id="形状"></path>
</svg>

<svg width="42" height="42" xmlns="http://www.w3.org/2000/svg"><path d="M19.512 20.025c6.466 0 11.707-4.484 11.707-10.013C31.219 4.482 25.978 0 19.512 0 13.048 0 7.806 4.482 7.806 10.012s5.242 10.013 11.707 10.013zm5.367 3.338h-9.757C6.771 23.363 0 29.153 0 36.295v.835c0 2.92 6.77 2.922 15.122 2.922h9.757c8.35 0 15.121-.108 15.121-2.922v-.834c0-7.143-6.77-12.933-15.121-12.933z"/></svg>
